small/extra/apps/standard/application-default-icon.svg

<?xml version="1.0" encoding="UTF-8" standalone="no"?>
<!-- Created with Inkscape (http://www.inkscape.org/) -->
<svg id="svg2" xmlns:rdf="http://www.w3.org/1999/02/22-rdf-syntax-ns#" xmlns="http://www.w3.org/2000/svg" height="100%" width="100%" version="1.1" xmlns:cc="http://creativecommons.org/ns#" viewBox="0 0 512 512" xmlns:dc="http://purl.org/dc/elements/1.1/">
 <metadata id="metadata120">
  <rdf:RDF>
   <cc:Work rdf:about="">
    <dc:format>image/svg+xml</dc:format>
    <dc:type rdf:resource="http://purl.org/dc/dcmitype/StillImage"/>
   </cc:Work>
  </rdf:RDF>
 </metadata>
 <rect id="rect4" rx="25.988" height="512" width="512" y="0" x="0" fill="#366378"/>
 <path id="path6" d="m0 255.72v230.28c0 14.397 11.603 26 26 26h230.06v-256.28h-256.06" fill="#924565"/>
 <path id="path8" d="m256.06 255.72v256.28h229.94c14.397 0 26-11.603 26-26v-230.28h-255.94" fill="#e4a146"/>
 <path id="path10" fill-opacity="0.235" d="m256 41-103.84 103.84c119.21 119.18 237.07 237.03 355.53 355.5 2.712-4.106 4.313-9.03 4.313-14.344v-189l-256-256m-111.16 111.16-103.84 103.84 256 256h189c5.319 0 10.265-1.592 14.375-4.313-45.865-45.864-92.12-92.09-137.91-137.87-72.46-72.51-145.12-145.09-217.62-217.66" fill-rule="evenodd"/>
 <path id="path12" d="m26 0c-14.397 0-26 11.603-26 26v229.72h256.06v-255.72h-230.06" fill="#9a3034"/>
 <text id="text14" style="word-spacing:0;letter-spacing:0" font-size="129.23px" line-height="125%" y="202.02" x="-55.611" font-family="Gentium Book Basic">
  <tspan id="tspan16" y="202.02" x="-55.611"/>
 </text>
 <text id="text18" style="text-anchor:middle" transform="scale(4.0128 .2492)" font-size="46.954px" y="461.53" x="183.22" font-family="Arial"/>
 <text id="text20" style="word-spacing:0;letter-spacing:0" font-size="129.23px" line-height="125%" y="122.02" x="525.65997" font-family="Gentium Book Basic">
  <tspan id="tspan22" y="122.02" x="525.65997"/>
 </text>
 <text id="text24" style="text-anchor:middle" transform="scale(4.0128 .2492)" font-size="46.954px" y="140.5" x="328.07001" font-family="Arial"/>
 <text id="text26" style="word-spacing:0;letter-spacing:0" font-size="129.23px" line-height="125%" y="-59.240002" x="-545.91998" font-family="Gentium Book Basic">
  <tspan id="tspan28" y="-59.240002" x="-545.91998"/>
 </text>
 <text id="text30" style="text-anchor:middle" transform="scale(4.0128 .2492)" font-size="46.954px" y="-586.85999" x="61.029999" font-family="Arial"/>
 <text id="text32" style="word-spacing:0;letter-spacing:0" font-size="129.23px" line-height="125%" y="-275.70999" x="552.13" font-family="Gentium Book Basic">
  <tspan id="tspan34" y="-275.70999" x="552.13"/>
 </text>
 <text id="text36" style="text-anchor:middle" transform="scale(4.0128 .2492)" font-size="46.954px" y="-1455.52" x="334.67001" font-family="Arial"/>
 <text id="text38" style="word-spacing:0;letter-spacing:0" font-size="129.23px" line-height="125%" y="-355.72" x="1133.4" font-family="Gentium Book Basic">
  <tspan id="tspan40" y="-355.72" x="1133.4"/>
 </text>
 <text id="text42" style="text-anchor:middle" transform="scale(4.0128 .2492)" font-size="46.954px" y="-1776.5601" x="479.51999" font-family="Arial"/>
 <text id="text44" style="word-spacing:0;letter-spacing:0" font-size="129.23px" line-height="125%" y="-828.12" x="744.28003" font-family="Gentium Book Basic">
  <tspan id="tspan46" y="-828.12" x="744.28003"/>
 </text>
 <text id="text48" style="text-anchor:middle" transform="scale(4.0128 .2492)" font-size="46.954px" y="-3672.21" x="382.54999" font-family="Arial"/>
 <text id="text50" style="word-spacing:0;letter-spacing:0" font-size="129.23px" line-height="125%" y="-908.12" x="1325.54" font-family="Gentium Book Basic">
  <tspan id="tspan52" y="-908.12" x="1325.54"/>
 </text>
 <text id="text54" style="text-anchor:middle" transform="scale(4.0128 .2492)" font-size="46.954px" y="-3993.24" x="527.40002" font-family="Arial"/>
 <g id="g56" style="word-spacing:0;letter-spacing:0" font-family="Gentium Book Basic" line-height="125%">
  <g id="g58" font-size="208.33px">
   <text id="text60" y="506.60001" x="-507.26001">
    <tspan id="tspan62" y="506.60001" x="-507.26001"/>
   </text>
   <text id="text64" y="436.25" x="-1895.73">
    <tspan id="tspan66" y="436.25" x="-1895.73"/>
   </text>
   <text id="text68" y="278.41" x="-2188.8">
    <tspan id="tspan70" y="278.41" x="-2188.8"/>
   </text>
   <text id="text72" y="473.39001" x="-2610.01">
    <tspan id="tspan74" y="473.39001" x="-2610.01"/>
   </text>
  </g>
  <text id="text76" transform="scale(1.0508 .95163)" font-size="84.77px" y="301.35999" x="-1285.04" fill="#654641">
   <tspan id="tspan78" y="301.35999" x="-1285.04"/>
  </text>
 </g>
 <g id="g80" fill="#654641">
  <text id="text82" style="text-anchor:middle" transform="scale(4.2168 .23715)" font-size="30.8px" y="980.28998" x="-190.96001" font-family="Arial"/>
  <text id="text84" style="word-spacing:0;letter-spacing:0" transform="scale(1.0508 .95163)" line-height="125%" font-size="45.38px" y="277.85999" x="-1017.23" font-family="Gentium Book Basic">
   <tspan id="tspan86" y="277.85999" x="-1017.23"/>
  </text>
  <text id="text88" style="text-anchor:middle" transform="scale(4.2168 .23715)" font-size="16.488px" y="992.41998" x="-184.28999" font-family="Arial"/>
  <text id="text90" style="word-spacing:0;letter-spacing:0" font-size="132.57px" line-height="125%" y="366.26999" x="-2091.26" font-family="Gentium Book Basic">
   <tspan id="tspan92" y="366.26999" x="-2091.26"/>
  </text>
  <text id="text94" style="text-anchor:middle" transform="scale(4.0128 .2492)" font-size="48.17px" y="1111.61" x="-318.97" font-family="Arial"/>
 </g>
 <g id="g96" style="word-spacing:0;letter-spacing:0" font-size="208.33px" line-height="125%" font-family="Gentium Book Basic">
  <text id="text98" y="346.39001" x="-1829.01">
   <tspan id="tspan100" y="346.39001" x="-1829.01"/>
  </text>
  <text id="text102" y="188.56" x="-2122.0901">
   <tspan id="tspan104" y="188.56" x="-2122.0901"/>
  </text>
 </g>
 <g id="g106" fill-rule="evenodd" fill="#fff" transform="matrix(1.3561 0 0 1.3561 973.71 -51.39)">
  <path id="path108" d="m-447.27 150.11 76.57 76.57-76.57 76.57-76.57-76.57z"/>
  <path id="path110" d="m-611.23 150.11 76.57 76.57-76.57 76.57-76.57-76.57z"/>
  <path id="path112" d="m-605.81 144.7 76.57-76.57 76.57 76.57-76.57 76.57z"/>
  <path id="path114" d="m-605.81 308.65 76.57-76.57 76.57 76.57-76.57 76.57z"/>
 </g>
</svg>

<?xml version="1.0" encoding="UTF-8" standalone="no"?>
<!-- Created with Inkscape (http://www.inkscape.org/) -->

<svg
   xmlns:dc="http://purl.org/dc/elements/1.1/"
   xmlns:cc="http://creativecommons.org/ns#"
   xmlns:rdf="http://www.w3.org/1999/02/22-rdf-syntax-ns#"
   xmlns:svg="http://www.w3.org/2000/svg"
   xmlns="http://www.w3.org/2000/svg"
   xmlns:inkscape="http://www.inkscape.org/namespaces/inkscape"
   version="1.1"
   width="100%"
   height="100%"
   viewBox="0 0 512 512"
   id="svg2">
  <metadata
     id="metadata120">
    <rdf:RDF>
      <cc:Work
         rdf:about="">
        <dc:format>image/svg+xml</dc:format>
        <dc:type
           rdf:resource="http://purl.org/dc/dcmitype/StillImage" />
      </cc:Work>
    </rdf:RDF>
  </metadata>
  <defs
     id="defs118" />
  <rect
     width="512"
     height="512"
     rx="25.988001"
     x="0"
     y="0"
     id="rect4"
     style="fill:#366378" />
  <path
     d="M 0,255.72 V 486 c 0,14.397 11.603,26 26,26 H 256.06 V 255.72 H 0"
     inkscape:connector-curvature="0"
     id="path6"
     style="fill:#924565" />
  <path
     d="M 256.06,255.72 V 512 H 486 c 14.397,0 26,-11.603 26,-26 V 255.72 H 256.06"
     inkscape:connector-curvature="0"
     id="path8"
     style="fill:#e4a146" />
  <path
     d="M 256,41 152.16,144.84 c 119.21,119.18 237.07,237.03 355.53,355.5 2.712,-4.106 4.313,-9.03 4.313,-14.344 v -189 l -256,-256 m -111.16,111.16 -103.84,103.84 256,256 h 189 c 5.319,0 10.265,-1.592 14.375,-4.313 -45.865,-45.864 -92.12,-92.09 -137.91,-137.87 -72.46,-72.51 -145.12,-145.09 -217.62,-217.66"
     inkscape:connector-curvature="0"
     id="path10"
     style="fill-opacity:0.23500001;fill-rule:evenodd" />
  <path
     d="M 26,0 C 11.603,0 0,11.603 0,26 V 255.72 H 256.06 V 0 H 26"
     inkscape:connector-curvature="0"
     id="path12"
     style="fill:#9a3034" />
  <text
     x="-55.611"
     y="202.02"
     id="text14"
     style="font-size:129.22999573px;line-height:125%;letter-spacing:0;word-spacing:0;font-family:Gentium Book Basic">
    <tspan
       x="-55.611"
       y="202.02"
       id="tspan16" />
  </text>
  <text
     x="183.22"
     y="461.53"
     transform="scale(4.0128,0.2492)"
     id="text18"
     style="font-size:46.95399857px;text-anchor:middle;font-family:Arial" />
  <text
     x="525.65997"
     y="122.02"
     id="text20"
     style="font-size:129.22999573px;line-height:125%;letter-spacing:0;word-spacing:0;font-family:Gentium Book Basic">
    <tspan
       x="525.65997"
       y="122.02"
       id="tspan22" />
  </text>
  <text
     x="328.07001"
     y="140.5"
     transform="scale(4.0128,0.2492)"
     id="text24"
     style="font-size:46.95399857px;text-anchor:middle;font-family:Arial" />
  <text
     x="-545.91998"
     y="-59.240002"
     id="text26"
     style="font-size:129.22999573px;line-height:125%;letter-spacing:0;word-spacing:0;font-family:Gentium Book Basic">
    <tspan
       x="-545.91998"
       y="-59.240002"
       id="tspan28" />
  </text>
  <text
     x="61.029999"
     y="-586.85999"
     transform="scale(4.0128,0.2492)"
     id="text30"
     style="font-size:46.95399857px;text-anchor:middle;font-family:Arial" />
  <text
     x="552.13"
     y="-275.70999"
     id="text32"
     style="font-size:129.22999573px;line-height:125%;letter-spacing:0;word-spacing:0;font-family:Gentium Book Basic">
    <tspan
       x="552.13"
       y="-275.70999"
       id="tspan34" />
  </text>
  <text
     x="334.67001"
     y="-1455.52"
     transform="scale(4.0128,0.2492)"
     id="text36"
     style="font-size:46.95399857px;text-anchor:middle;font-family:Arial" />
  <text
     x="1133.4"
     y="-355.72"
     id="text38"
     style="font-size:129.22999573px;line-height:125%;letter-spacing:0;word-spacing:0;font-family:Gentium Book Basic">
    <tspan
       x="1133.4"
       y="-355.72"
       id="tspan40" />
  </text>
  <text
     x="479.51999"
     y="-1776.5601"
     transform="scale(4.0128,0.2492)"
     id="text42"
     style="font-size:46.95399857px;text-anchor:middle;font-family:Arial" />
  <text
     x="744.28003"
     y="-828.12"
     id="text44"
     style="font-size:129.22999573px;line-height:125%;letter-spacing:0;word-spacing:0;font-family:Gentium Book Basic">
    <tspan
       x="744.28003"
       y="-828.12"
       id="tspan46" />
  </text>
  <text
     x="382.54999"
     y="-3672.21"
     transform="scale(4.0128,0.2492)"
     id="text48"
     style="font-size:46.95399857px;text-anchor:middle;font-family:Arial" />
  <text
     x="1325.54"
     y="-908.12"
     id="text50"
     style="font-size:129.22999573px;line-height:125%;letter-spacing:0;word-spacing:0;font-family:Gentium Book Basic">
    <tspan
       x="1325.54"
       y="-908.12"
       id="tspan52" />
  </text>
  <text
     x="527.40002"
     y="-3993.24"
     transform="scale(4.0128,0.2492)"
     id="text54"
     style="font-size:46.95399857px;text-anchor:middle;font-family:Arial" />
  <g
     id="g56"
     style="line-height:125%;letter-spacing:0;word-spacing:0;font-family:Gentium Book Basic">
    <g
       id="g58"
       style="font-size:208.33000183px">
      <text
         x="-507.26001"
         y="506.60001"
         id="text60">
        <tspan
           x="-507.26001"
           y="506.60001"
           id="tspan62" />
      </text>
      <text
         x="-1895.73"
         y="436.25"
         id="text64">
        <tspan
           x="-1895.73"
           y="436.25"
           id="tspan66" />
      </text>
      <text
         x="-2188.8"
         y="278.41"
         id="text68">
        <tspan
           x="-2188.8"
           y="278.41"
           id="tspan70" />
      </text>
      <text
         x="-2610.01"
         y="473.39001"
         id="text72">
        <tspan
           x="-2610.01"
           y="473.39001"
           id="tspan74" />
      </text>
    </g>
    <text
       x="-1285.04"
       y="301.35999"
       transform="scale(1.05082,0.95163)"
       id="text76"
       style="font-size:84.76999664px;fill:#654641">
      <tspan
         x="-1285.04"
         y="301.35999"
         id="tspan78" />
    </text>
  </g>
  <g
     id="g80"
     style="fill:#654641">
    <text
       x="-190.96001"
       y="980.28998"
       transform="scale(4.21677,0.23715)"
       id="text82"
       style="font-size:30.79999924px;text-anchor:middle;font-family:Arial" />
    <text
       x="-1017.23"
       y="277.85999"
       transform="scale(1.05082,0.95163)"
       id="text84"
       style="font-size:45.38000107px;line-height:125%;letter-spacing:0;word-spacing:0;font-family:Gentium Book Basic">
      <tspan
         x="-1017.23"
         y="277.85999"
         id="tspan86" />
    </text>
    <text
       x="-184.28999"
       y="992.41998"
       transform="scale(4.21677,0.23715)"
       id="text88"
       style="font-size:16.48800087px;text-anchor:middle;font-family:Arial" />
    <text
       x="-2091.26"
       y="366.26999"
       id="text90"
       style="font-size:132.57000732px;line-height:125%;letter-spacing:0;word-spacing:0;font-family:Gentium Book Basic">
      <tspan
         x="-2091.26"
         y="366.26999"
         id="tspan92" />
    </text>
    <text
       x="-318.97"
       y="1111.61"
       transform="scale(4.0128,0.2492)"
       id="text94"
       style="font-size:48.16999817px;text-anchor:middle;font-family:Arial" />
  </g>
  <g
     id="g96"
     style="font-size:208.33000183px;line-height:125%;letter-spacing:0;word-spacing:0;fill:#000000;font-family:Gentium Book Basic">
    <text
       x="-1829.01"
       y="346.39001"
       id="text98">
      <tspan
         x="-1829.01"
         y="346.39001"
         id="tspan100" />
    </text>
    <text
       x="-2122.0901"
       y="188.56"
       id="text102">
      <tspan
         x="-2122.0901"
         y="188.56"
         id="tspan104" />
    </text>
  </g>
  <g
     transform="matrix(1.35609,0,0,1.35609,973.71,-51.39)"
     id="g106"
     style="fill:#ffffff;fill-rule:evenodd">
    <path
       d="m -447.27,150.11 76.57,76.57 -76.57,76.57 -76.57,-76.57 z"
       inkscape:connector-curvature="0"
       id="path108" />
    <path
       d="m -611.23,150.11 76.57,76.57 -76.57,76.57 -76.57,-76.57 z"
       inkscape:connector-curvature="0"
       id="path110" />
    <path
       d="m -605.81,144.7 76.57,-76.57 76.57,76.57 -76.57,76.57 z"
       inkscape:connector-curvature="0"
       id="path112" />
    <path
       d="m -605.81,308.65 76.57,-76.57 76.57,76.57 -76.57,76.57 z"
       inkscape:connector-curvature="0"
       id="path114" />
  </g>
</svg>
